digital/Imbassy-X-Files/65ef0811cc67439994568a45/65ef0811cc6743999456944b_Linkedin.svg

<svg fill="none" height="47" viewBox="0 0 48 47" width="48" xmlns="http://www.w3.org/2000/svg"><path d="m38.9125 10.5101v25.779c0 .5896-.2342 1.155-.6511 1.5719s-.9823.6511-1.5719.6511h-25.779c-.5896 0-1.15501-.2342-1.5719-.6511s-.6511-.9823-.6511-1.5719v-25.779c0-.58957.23421-1.155.6511-1.57189s.9823-.6511 1.5719-.6511h25.779c.5896 0 1.155.23421 1.5719.6511s.6511.98232.6511 1.57189zm-21.333 9.3405h-4.446v14.235h4.4265v-14.235zm.3705-4.8945c.0026-.3355-.061-.6681-.187-.9791-.126-.3109-.312-.5939-.5474-.8329s-.5156-.4294-.8245-.5601c-.309-.1307-.6406-.1993-.9761-.2019h-.078c-.6827 0-1.3374.2712-1.8201.7539s-.7539 1.1374-.7539 1.8201.2712 1.3374.7539 1.8201 1.1374.7539 1.8201.7539c.3355.0078.6692-.0506.9821-.1719.3129-.1212.5989-.3029.8415-.5347.2427-.2318.4373-.5091.5727-.8162.1355-.307.2091-.6377.2167-.9732zm16.497 10.4715c0-4.29-2.73-5.9475-5.421-5.9475-.8833-.0409-1.762.15-2.5487.5536-.7868.4037-1.4543 1.0061-1.9363 1.7474h-.1365v-1.95h-4.173v14.235h4.446v-7.5465c-.0651-.7722.1767-1.5389.6732-2.1339.4964-.595 1.2074-.9704 1.9788-1.0446h.1755c1.404 0 2.457.8775 2.457 3.12v7.6245h4.446l.039-8.6385z" fill="#2a2e32"/></svg>

<svg width="48" height="47" viewBox="0 0 48 47" fill="none" xmlns="http://www.w3.org/2000/svg">
<path d="M38.9125 10.5101V36.2891C38.9125 36.8787 38.6783 37.4441 38.2614 37.861C37.8445 38.2779 37.2791 38.5121 36.6895 38.5121H10.9105C10.3209 38.5121 9.75549 38.2779 9.3386 37.861C8.92171 37.4441 8.6875 36.8787 8.6875 36.2891V10.5101C8.6875 9.92053 8.92171 9.3551 9.3386 8.93821C9.75549 8.52132 10.3209 8.28711 10.9105 8.28711H36.6895C37.2791 8.28711 37.8445 8.52132 38.2614 8.93821C38.6783 9.3551 38.9125 9.92053 38.9125 10.5101ZM17.5795 19.8506H13.1335V34.0856H17.56V19.8506H17.5795ZM17.95 14.9561C17.9526 14.6206 17.889 14.288 17.763 13.977C17.637 13.6661 17.451 13.3831 17.2156 13.1441C16.9802 12.9051 16.7 12.7147 16.3911 12.584C16.0821 12.4533 15.7505 12.3847 15.415 12.3821H15.337C14.6543 12.3821 13.9996 12.6533 13.5169 13.136C13.0342 13.6187 12.763 14.2734 12.763 14.9561C12.763 15.6388 13.0342 16.2935 13.5169 16.7762C13.9996 17.2589 14.6543 17.5301 15.337 17.5301C15.6725 17.5379 16.0062 17.4795 16.3191 17.3582C16.632 17.237 16.918 17.0553 17.1606 16.8235C17.4033 16.5917 17.5979 16.3144 17.7333 16.0073C17.8688 15.7003 17.9424 15.3696 17.95 15.0341V14.9561ZM34.447 25.4276C34.447 21.1376 31.717 19.4801 29.026 19.4801C28.1427 19.4392 27.264 19.6301 26.4773 20.0337C25.6905 20.4374 25.023 21.0398 24.541 21.7811H24.4045V19.8311H20.2315V34.0661H24.6775V26.5196C24.6124 25.7474 24.8542 24.9807 25.3507 24.3857C25.8471 23.7907 26.5581 23.4153 27.3295 23.3411H27.505C28.909 23.3411 29.962 24.2186 29.962 26.4611V34.0856H34.408L34.447 25.4471V25.4276Z" fill="#2A2E32"/>
</svg>
